X: 1
T: Green and Gold   [D]
O: Straight & Skillern, London c.1775
R: reel
Z: 2014 John Chambers <jc:trillian.mit.edu> (chords 2015)
M: 2/4
L: 1/16
K: D
|:\
"D"defg .a2.a2 | "A7"abag "D"f2a2 | "Em"gagf "A7"e2g2 | "D"f2af d4 |\
"A"a2A2 z2a2 | "(D)"a2A2 z2a2 | "A"e4 e4 | "A7"a2e2 A4 :|
|:\
"D"agfg f2z2 | "A7"e2A2 z2g2 | "A7"gfef e2z2 | "D"f2[d2D2] z4 |\
"D"d'3a d'3a | "D"d'2a2 gfed "I"| "Em"e2ge "A7"{d}c2BA | "D"dcde d4 :|
"Trio"[|\
"D"d3e f2e2 | d2A2 TB2"(A7)"A2 | "D"d3e f2e2 | d4 e2f2 |\
"A7"{a}g2{f}e2 "D"{g}f2{e}d2 | {d}c2{B}A2 e2f2 | "A7"{a}g2{f}e2 "D"{g}f2{e}d2 | "A7"e2AB AGFE |
"D"d3e f2e2 | d2A2 TB2"(A7)"A2 | "D"d3e f2e2 | d4 e2f2 |\
"A7"{a}g2fe "D"{g}f2ed | "A7"{d}c2{B}A2 "D"d2f2- | "Em"fBge "A7"d2Tc2 | "D"d8 |]
%%begintext align
%% The 1st 2d & 3d Cu. foot it & hands round 6 .| the same back
%% again :| foot it corners & turn .|. foot it the other corners
%% & turn :|: lead up to the top & cast off .||. lead thro'
%% the 3d Cu. & cast up :||:
%%endtext

%%sep 1 1 500
